X: 21
T: Lady William's Delight
C: Johathan Jensen
N: Baltimore, Maryland
B: "Gems - The Best of the Country Dance and Song Society", CDSS, 1993, p.72
Z: 2011 John Chambers <jc:trillian.mit.edu>
R: minuet
M: 3/2
L: 1/8
K: Bm
V: 1
|: f3e def2 d2B2 | G2 e4 d2 c2A2 | F2 d4 c2 B2G2 | E2A4 G2 FGA2 |
Bcd2 d2c2 d4 :: a3g fga2 b2g2 | e3d cde2 f2c2 | d2B2 gfe2 fed2 |
d4- d2c2 B4 | FGA2 B2F2 G2E2 | cde2 a2e2 f2d2 | e2B2 "A7"c2A2 d2A2 | FGA2 "A7"F2ED D4 :|
V: 2 clef=bass middle=d
|: "Bm"B8 d4 | "Em"e4 G4 "A"A4 | "D"d4 F4 "G"G4 | "A"A4 c4 "D"d4 | "G"g4 "A"a4 "D"d2c2 :|
|: "D"d8 "G"g4 | "Em"e4 g4 "F#"f4 | "Bm"B4 "Em"e4 "Bm"d4 | "Bm"f4 "F#"F4 "Bm"B4 |
   "D"d4 "B"^d4 "Em"e4 | "A"A4 c4 "D"d4 | "Em"G4 "A7"g4 "D"f4 | "D"a4 "A7"A4 "D"Hd2c2 :|

%%page
%%sep 1 1 500
%%sep 1 1 500
